X: 436
T: Zaihe gege zuo yizheng
L: 1/8
M: 2/4
K: D
e Be2 [I:setbarnb 1]| 
B e B A/ A/ | 
G E A B | 
E4 | 
e Be2 | 
B e B A/ A/ | 
G E A B | 
A4 |]

@@@ Tune index: 9310
